src/svg/globe.svg

<svg version="1.2" baseProfile="tiny" xmlns="http://www.w3.org/2000/svg" width="24" height="24" viewBox="0 0 24 24"><path d="M11 20h-4c-.553 0-1 .447-1 1s.447 1 1 1h10c.553 0 1-.447 1-1s-.447-1-1-1h-4v-1.23c1.64-.371 3.146-1.188 4.363-2.406 1.7-1.7 2.637-3.96 2.637-6.364 0-2.067-.692-4.029-1.968-5.619l.675-.673c.391-.391.391-1.023.001-1.415-.391-.391-1.024-.39-1.415-.001l-2.052 2.049.708.708c1.322 1.322 2.051 3.081 2.051 4.951s-.729 3.627-2.051 4.949-3.079 2.051-4.949 2.051-3.627-.729-4.949-2.051c-.391-.391-1.023-.391-1.414 0-.391.39-.391 1.023 0 1.414 1.699 1.7 3.959 2.637 6.363 2.637v1zM11 4c1.657 0 3.157.672 4.243 1.757 1.085 1.086 1.757 2.586 1.757 4.243 0 1.656-.672 3.156-1.757 4.242-1.086 1.086-2.586 1.758-4.243 1.758-1.658 0-3.157-.672-4.242-1.757-1.085-1.086-1.756-2.586-1.756-4.243s.671-3.157 1.756-4.243c1.085-1.085 2.584-1.757 4.242-1.757z"/></svg>

<?xml version="1.0" encoding="iso-8859-1"?>
<!-- Generator: Adobe Illustrator 16.2.1, SVG Export Plug-In . SVG Version: 6.00 Build 0)  -->
<svg version="1.2" baseProfile="tiny" id="Layer_1" xmlns="http://www.w3.org/2000/svg" xmlns:xlink="http://www.w3.org/1999/xlink"
	 x="0px" y="0px" width="24px" height="24px" viewBox="0 0 24 24" xml:space="preserve">
<path d="M11,20H7c-0.553,0-1,0.447-1,1s0.447,1,1,1h10c0.553,0,1-0.447,1-1s-0.447-1-1-1h-4v-1.23
	c1.64-0.371,3.146-1.188,4.363-2.406C19.063,14.664,20,12.404,20,10c0-2.067-0.692-4.029-1.968-5.619l0.675-0.673
	c0.391-0.391,0.391-1.023,0.001-1.415c-0.391-0.391-1.024-0.39-1.415-0.001l-2.052,2.049l0.708,0.708C17.271,6.371,18,8.13,18,10
	s-0.729,3.627-2.051,4.949S12.87,17,11,17s-3.627-0.729-4.949-2.051c-0.391-0.391-1.023-0.391-1.414,0
	c-0.391,0.39-0.391,1.023,0,1.414C6.336,18.063,8.596,19,11,19V20z"/>
<g>
	<path d="M11,4c1.657,0,3.157,0.672,4.243,1.757C16.328,6.843,17,8.343,17,10c0,1.656-0.672,3.156-1.757,4.242
		C14.157,15.328,12.657,16,11,16c-1.658,0-3.157-0.672-4.242-1.757C5.673,13.157,5.002,11.657,5.002,10s0.671-3.157,1.756-4.243
		C7.843,4.672,9.342,4,11,4z"/>
</g>
</svg>
